svg/500/outlined/grid_3x3-fill.svg

<svg xmlns="http://www.w3.org/2000/svg" width="48" height="48" viewBox="0 -960 960 960"><path d="M326.304-155.935v-170.369H155.935v-68.131h170.369v-171.13H155.935v-68.37h170.369v-170.13h68.131v170.13h171.13v-170.13h68.37v170.13h170.13v68.37h-170.13v171.13h170.13v68.131h-170.13v170.369h-68.37v-170.369h-171.13v170.369h-68.131Zm68.131-238.5h171.13v-171.13h-171.13v171.13Z"/></svg>

<svg xmlns="http://www.w3.org/2000/svg" width="48" height="48" viewBox="0 -960 960 960"><path d="M326.3-155.93V-326.3H155.93v-68.13H326.3v-171.14H155.93v-68.36H326.3v-170.14h68.13v170.14h171.14v-170.14h68.36v170.14h170.14v68.36H633.93v171.14h170.14v68.13H633.93v170.37h-68.36V-326.3H394.43v170.37H326.3Zm68.13-238.5h171.14v-171.14H394.43v171.14Z"/></svg>
